X:27
T:Lord Holderness Rant. VWMLa.027
%%VWML:Anon2-3049-p17-0
F:http://www.vwml.org/record/Anon2/3049/p17
S:Anon. MS, late 18thC, Vaughan Williams Mem. Library
O:England;Yorkshire
Z:vmp/efdss.Simon Wilson. Reviewed PJH 2008.
M:C
L:1/8
Q:2/4=90
K:G
G2BG BdBG|A2cA FAFD|G2DF ECB,A,|G,cBA G2G,2:|\
|:B2BG B2BG|BGdB G2B2|A2AE A2AE|AEcA F2G2:|
|:B2(dB) (dB)(dB)|dgfe d2(cB)|c2(ec) (ec) (ec)|Aedc B2AG:|\
|:G2DB, G2DB,|CDEF G2A,2|G2DB, G2DB,|C2D2 G,4:|
T:Norfolk Freeholders. VWMLa.028
R:Jig
S:Anon. MS, late 18thC, Vaughan Williams Mem. Library
O:England;Yorkshire
Z:vmp/efdss.Simon Wilson. Reviewed PJH 2008.
M:6/8
L:1/8
Q:3/8=120
K:D
ddD FED|fed ecA|ddD FED|edc d3:|\
|:fda fda|eca eca|fda fda|Bdc d3:|
